X:134
T:Spirit on the Move
R:reel
C: 2007, 2010 L.E. McCullough 
M:4/4
L:1/8
K:Amix 
ed |: c~A3 BAGB | ~A3G E2ed | c~A3 (3Bcd ef | ~g3a g2ed |
c~A3 BAGB | ABAG E2ED | E~G3 BAGB |1 ~A3G A2ed:|2 ~A3G A2ef|]
|: ~g3e ~f3d | efdB A2ef | ~g3e feed | eaag  a2ef |
~g3e ~f3d | efdB A2AG | E~G3 BAGB |1 ~A3G A2ef:|2 ~A3G A2ed|]

